svg/color/brlv.svg

<svg width="1021" height="151" viewBox="0 0 1021 151" fill="none" xmlns="http://www.w3.org/2000/svg">
<path d="M89.6533 0C125.437 0 152.876 16.4434 165.885 36.125L136.005 50.9434C125.838 35.1179 110.387 28.0117 89.252 28.0117C55.5089 28.0118 33.1475 44.2496 33.1475 75.5C33.1475 106.75 55.5089 122.988 89.252 122.988C110.397 122.988 126.041 116.089 136.62 99.8545L166.298 114.669C152.876 134.763 125.437 151 88.2324 151C34.7636 151 0 122.793 0 75.5C0 28.2067 34.7633 2.35296e-05 89.6533 0ZM499.214 0C554.711 0 589.682 28.0121 589.682 75.5C589.682 122.988 554.711 151 499.214 151C443.717 151 408.747 122.988 408.747 75.5C408.747 28.0122 443.717 0.000123262 499.214 0ZM989.492 102.425V5H1021V147.074H992.541L890.485 44.375V147.074H858.978V5H893.534L989.492 102.425ZM819.01 119.685C819.613 119.685 820.104 120.174 820.104 120.777V145.907C820.103 146.51 819.615 146.999 819.012 147H629.988C629.385 147 628.897 146.51 628.896 145.907V120.777C628.896 120.174 629.384 119.685 629.987 119.685H819.01ZM303.998 4.46289C338.761 4.46289 364.986 20.494 364.986 51.3438C364.986 75.4996 348.928 90.513 325.34 95.9941L369.25 146.525H330.418V146.537L289.557 98.2373H238.128V146.537H205.807V4.46289H303.998ZM499.203 28.0117C464.027 28.0117 441.871 45.062 441.871 75.5C441.871 105.938 463.832 122.988 499.203 122.988C534.574 122.988 556.534 105.938 556.534 75.5C556.534 45.0621 534.379 28.0118 499.203 28.0117ZM136.62 99.8545L136.612 99.8506H136.623C136.622 99.8519 136.621 99.8531 136.62 99.8545ZM722.854 5.74609C723.725 4.75113 725.274 4.75111 726.145 5.74609L771.479 57.5576C771.915 58.0549 772.688 58.0549 773.123 57.5576L818.188 6.05566C818.853 5.29651 820.103 5.76583 820.104 6.77441V91.2764C820.103 91.8793 819.615 92.3686 819.012 92.3691H629.988C629.385 92.369 628.897 91.8795 628.896 91.2764V6.77441C628.897 5.76583 630.146 5.29651 630.811 6.05566L675.875 57.5576C676.31 58.0549 677.084 58.0549 677.52 57.5576L722.854 5.74609ZM237.91 71.4375H302.153C319.231 71.4375 331.839 67.3752 331.839 51.5498C331.839 35.7246 319.231 31.6621 302.153 31.6621H237.91V71.4375Z" fill="url(#paint0_linear_118_1830)"/>
<defs>
<linearGradient id="paint0_linear_118_1830" x1="-85.7014" y1="76.2758" x2="1021" y2="76.2758" gradientUnits="userSpaceOnUse">
<stop offset="0.08" stop-color="#E0D4FF"/>
<stop offset="0.62" stop-color="#F9F7FF"/>
<stop offset="0.72" stop-color="white"/>
<stop offset="0.75" stop-color="#FBF9FF"/>
<stop offset="0.91" stop-color="#E7DEFF"/>
<stop offset="1" stop-color="#E0D4FF"/>
</linearGradient>
</defs>
</svg>

<svg xmlns="http://www.w3.org/2000/svg" width="1021" height="151" fill="none" viewBox="0 0 1021 151"><path fill="url(#brlv_svg-a)" d="M89.653 0c35.784 0 63.223 16.443 76.232 36.125l-29.88 14.818c-10.167-15.825-25.618-22.931-46.753-22.931-33.743 0-56.104 16.238-56.104 47.488s22.36 47.488 56.104 47.488c21.145 0 36.789-6.899 47.368-23.133l29.678 14.814C152.876 134.763 125.437 151 88.232 151 34.764 151 0 122.793 0 75.5S34.763 0 89.653 0m409.561 0c55.497 0 90.468 28.012 90.468 75.5S554.711 151 499.214 151s-90.467-28.012-90.467-75.5S443.717 0 499.214 0m490.278 102.425V5H1021v142.074h-28.459L890.485 44.375v102.699h-31.507V5h34.556zm-170.482 17.26c.603 0 1.094.489 1.094 1.092v25.13a1.094 1.094 0 0 1-1.092 1.093H629.988c-.603 0-1.091-.49-1.092-1.093v-25.13c0-.603.488-1.092 1.091-1.092zM303.998 4.463c34.763 0 60.988 16.031 60.988 46.88 0 24.157-16.058 39.17-39.646 44.651l43.91 50.531h-38.832v.012l-40.861-48.3h-51.429v48.3h-32.321V4.463zm195.205 23.549c-35.176 0-57.332 17.05-57.332 47.488s21.961 47.488 57.332 47.488 57.331-17.05 57.331-47.488-22.155-47.488-57.331-47.488M136.62 99.855l-.008-.004h.011zM722.854 5.746a2.187 2.187 0 0 1 3.291 0l45.334 51.812a1.092 1.092 0 0 0 1.644 0l45.065-51.502c.665-.76 1.915-.29 1.916.718v84.502a1.094 1.094 0 0 1-1.092 1.093H629.988c-.603 0-1.091-.49-1.092-1.093V6.774c.001-1.008 1.25-1.477 1.915-.718l45.064 51.502a1.093 1.093 0 0 0 1.645 0zM237.91 71.438h64.243c17.078 0 29.686-4.063 29.686-19.888s-12.608-19.888-29.686-19.888H237.91z"/><defs><linearGradient id="brlv_svg-a" x1="-85.701" x2="1021" y1="76.276" y2="76.276" gradientUnits="userSpaceOnUse"><stop offset=".08" stop-color="#E0D4FF"/><stop offset=".62" stop-color="#F9F7FF"/><stop offset=".72" stop-color="#fff"/><stop offset=".75" stop-color="#FBF9FF"/><stop offset=".91" stop-color="#E7DEFF"/><stop offset="1" stop-color="#E0D4FF"/></linearGradient></defs></svg>
